X:139
%%pagewidth 9in
%%vocalfont Baskerville10Pro 14
T:The beggar boy
M:6/8
L:1/8
K:D
%%score 1 2
V:1 clef-treble
V:2 clef-bass octave=-1
V:1
FFF d>ed&D3D3|cA2 B2A&D3D3|[DF]D2[CE]2[CE]|[DF]2[EG] [FA][DF]2|
w:Sweet mis-tress Money,* I here will declare Thy beauty which ev'-ry one adoreth.* The
V:2
D3B3|AF2G2F|D3A,3|D,6|
V:1
FFF d2d&D2x[E^G]3|cA2 [CEB]2[DA]&E3x3|[DF]D2 [DE]2[CE]|[DF]2[EG] [FA][DF]2||
w:lof-ty gal-lant and beg-gar so~bare, Some help and comfort from thee im-plor-eth,~For
V:2
B3F3|A3=G2F|B3G2A|D6||
V:1
FFF d2d&D3D3|cA2 B2A&D3D3|FA2 (c>B)c&D3E3|[Fd][DF]2[CE]2E|
w:thou art be-come the world's sweet-heart, While ev'-ry one* doth make thee~their honey, And
V:2
D3B3&D6|AF2 G2F&D6|D3A,3&D3x3|D,3A,3|
V:1
FA2 (c>B)A&D3G2x|Bd(e/d/) (cd)B&G3G3|[DA]FD E2E&x3C3|[DF]2[EG] [FA][DF]2||
w:loth they are* from thee to de-*part,* So well they do love sweet Mis-tress Mo-ney.
V:2
{D,/}D3E2F|{G,/}GBc/B/ ^ABG|FDF E3&A,3A,3|[D,D]6||

